X:649
T: "Trinklied"
N: Z1330
O: Europa, Mitteleuropa, Deutschland, Niederrhein
R: Zech -, Schalks - Lied
M: 4/4
L: 1/8
K: Eb
B2 | B3AG3A | B4
c4 | cBB2BAA2 | G2z4
B2 | BAA2F3F | GFGAB2
e2 | BAA2F3F | GFGAB2
e2 | c3de2c2 | B3AG2
GB | BAA2AGAB | G4z2

